!!!OTL: ALS DER SANDWIRTH VON PASSEIER
!!!ARE: Europa, Mitteleuropa, Deutschland
!!!SCT: F0568
!!!YEM: Copyright 1995, estate of Helmut Schaffrath.
**kern
*ICvox
*Ivox
*M3/4
*k[b-e-a-d-]
*f:
{8c
8c
=1
4f
4f
8f
8g
=2
8.a-
16g
4f}
{8f
8g
=3
8a-
8b-
4cc
8a-
8f
=4
4e-
4c}
{8e-
8e-
=5
4a-
4a-
8a-
8b-
=6
8.cc
16b-
4a-}
{8a-
8b-
=7
8cc
8dd-
4ee-
8cc
8a-
=8
4g
4e-}
{8ee-
8ee-
=9
4ee-
4dd-
8dd-
8dd-
=10
4dd-
4cc}
{8cc
8cc
=11
4.ff
8ee-
8dd-
8cc
=12
4dd-
4b-}
{8c
8c
=13
4.f
8e
8f
8g
=14
8a-
8g
4f}
{8f
8g
=15
8a-
8b-
4cc
8a-
8f
=16
8a-
8g
4f}
==
!!!AGN: Soldaten - Lied
!!!ONB: ESAC (Essen Associative Code) Database: FINK
!!!AMT: simple triple
!!!AIN: vox
!!!EED: Helmut Schaffrath
!!!EEV: 1.0
*-
